outputs/icons/navigation/refresh_round.svg

<svg xmlns="http://www.w3.org/2000/svg" width="1200" height="1200" fill="none"><g clip-path="url(#a)"><path fill="#000" d="M882.5 317.5C801 236 685.5 189 558.5 202c-183.499 18.499-334.499 167.5-354.999 351-27.5 242.5 160 447 396.499 447 159.5 0 296.5-93.5 360.5-228 16-33.5-8-72-45-72-18.5 0-36 10-44 26.5C815 848 679.5 925 531.5 892c-110.999-24.5-200.499-115-223.999-226-42-194 105.5-366 292.499-366 83 0 157 34.5 211 89l-75.5 75.499C704 496 726 550 770.5 550H950c27.5 0 50-22.5 50-50V320.499c0-44.499-54-67-85.5-35.499z"/></g><defs><clipPath id="a"><path fill="#fff" d="M0 0h1200v1200H0z"/></clipPath></defs></svg>

<svg width="1200" height="1200" viewBox="0 0 1200 1200" fill="none" xmlns="http://www.w3.org/2000/svg"><g clip-path="url(#clip0_225_2889)"><path d="M882.5 317.5C801 236 685.5 189 558.5 202C375 220.499 223.999 369.5 203.499 553C176 795.5 363.5 1000 600 1000C759.5 1000 896.5 906.5 960.5 772C976.5 738.5 952.5 700 915.5 700C897 700 879.5 710 871.5 726.5C815 848 679.5 925 531.5 892C420.5 867.5 330.999 777 307.5 666C265.5 472 413 300 600 300C683 300 757 334.5 811 389L735.5 464.499C704 496 726 550 770.5 550H950C977.5 550 1000 527.5 1000 500V320.499C1000 276 946 253.499 914.5 285L882.5 317.5Z" fill="#1D1E23"/></g><defs><clipPath id="clip0_225_2889"><path width="24" fill="white" d="M0 0H1200V1200H0V0z"/></clipPath></defs></svg>
